src/icons/svg/stack-overflow.svg

<?xml version="1.0"?><svg xmlns="http://www.w3.org/2000/svg" width="40" height="40" viewBox="0 0 40 40"><path  d="m31.8 36.4h-25v-10.7h-3.6v14.3h32.1v-14.3h-3.5v10.7z m-21.1-11.7l0.8-3.5 17.5 3.7-0.8 3.5z m2.3-8.3l1.5-3.3 16.2 7.6-1.5 3.2z m4.5-8l2.3-2.7 13.7 11.4-2.3 2.8z m8.9-8.4l10.6 14.3-2.8 2.2-10.7-14.4z m-16 32.8v-3.5h17.8v3.5h-17.8z"></path></svg>

<svg xmlns="http://www.w3.org/2000/svg" width="40" height="40" viewBox="0 0 40 40"><path d="M31.8 36.4h-25V25.7H3.2V40h32.1V25.7h-3.5v10.7zM10.7 24.7l.8-3.5L29 24.9l-.8 3.5zm2.3-8.3l1.5-3.3 16.2 7.6-1.5 3.2zm4.5-8l2.3-2.7 13.7 11.4-2.3 2.8zM26.4 0L37 14.3l-2.8 2.2L23.5 2.1zm-16 32.8v-3.5h17.8v3.5H10.4z"/></svg>
